svgs/thin/treasure-chest.svg

<svg xmlns="http://www.w3.org/2000/svg" viewBox="0 0 576 512"><!-- Font Awesome Pro 6.0.0-alpha2 by @fontawesome - https://fontawesome.com License - https://fontawesome.com/license (Commercial License) --><path d="M448 32H128C57.309 32 0 89.307 0 160V416C0 451.346 28.654 480 64 480H512C547.348 480 576 451.346 576 416V160C576 89.307 518.693 32 448 32ZM120 464H64C37.533 464 16 442.467 16 416V288H120V464ZM120 272H16V160C16 100.982 62.033 52.996 120 48.809V272ZM440 464H136V288H216V328C216 350.062 233.938 368 256 368H320C342.062 368 360 350.062 360 328V288H440V464ZM232 328V216C232 202.766 242.781 192 256 192H320C333.219 192 344 202.766 344 216V328C344 341.234 333.219 352 320 352H256C242.781 352 232 341.234 232 328ZM440 272H360V216C360 193.938 342.062 176 320 176H256C233.938 176 216 193.938 216 216V272H136V48H440V272ZM560 416C560 442.467 538.467 464 512 464H456V288H560V416ZM560 272H456V48.809C513.967 52.996 560 100.982 560 160V272ZM288 320C292.406 320 296 316.422 296 312V232C296 227.578 292.406 224 288 224S280 227.578 280 232V312C280 316.422 283.594 320 288 320Z"/></svg>

<svg xmlns="http://www.w3.org/2000/svg" viewBox="0 0 576 512"><!--! Font Awesome Pro 6.3.0 by @fontawesome - https://fontawesome.com License - https://fontawesome.com/license (Commercial License) Copyright 2023 Fonticons, Inc. --><path d="M448 32H128C57.31 32 0 89.31 0 160v256c0 35.35 28.65 64 64 64h448c35.35 0 64-28.65 64-64V160C576 89.31 518.7 32 448 32zM120 464H64c-26.47 0-48-21.53-48-48V288h104V464zM120 272H16V160c0-59.02 46.03-107 104-111.2V272zM440 464h-304V288h80v40c0 22.06 17.94 40 40 40h64c22.06 0 40-17.94 40-40V288h80V464zM232 328v-112C232 202.8 242.8 192 256 192h64c13.22 0 24 10.77 24 24v112c0 13.23-10.78 24-24 24H256C242.8 352 232 341.2 232 328zM440 272h-80V216c0-22.06-17.94-40-40-40H256c-22.06 0-40 17.94-40 40V272h-80v-224h304V272zM560 416c0 26.47-21.53 48-48 48h-56V288h104V416zM560 272h-104V48.81C513.1 52.1 560 100.1 560 160V272zM288 320c4.406 0 8-3.578 8-8v-80C296 227.6 292.4 224 288 224S280 227.6 280 232v80C280 316.4 283.6 320 288 320z"/></svg>
